; generated by Slic3r 1.37.2-prusa3d-linux64 on 2018-02-19 at 07:32:17

; 

; external perimeters extrusion width = 0.45mm
; perimeters extrusion width = 0.45mm
; infill extrusion width = 0.45mm
; solid infill extrusion width = 0.45mm
; top infill extrusion width = 0.40mm
; first layer extrusion width = 0.50mm

M107
M190 S60 ; set bed temperature and wait for it to be reached
M104 S220 ; set temperature
G28 ; home all axes
G29;

; Filament gcode

M109 S220 ; set temperature and wait for it to be reached
G21 ; set units to millimeters
G90 ; use absolute coordinates
M82 ; use absolute distances for extrusion
G92 E0
G1 Z0.250 F15000.000
G1 E-2.50000 F4800.00000
G92 E0
G1 X68.111 Y42.836 F15000.000
G1 E2.50000 F4800.00000
G1 F3000
G1 X70.571 Y41.402 E2.63211
G1 X73.239 Y40.391 E2.76445
G1 X75.878 Y39.781 E2.89011
G1 X78.250 Y39.477 E3.00106
G1 X80.986 Y39.372 E3.12811
G1 X83.860 Y39.488 E3.26152
G1 X86.680 Y39.793 E3.39311
G1 X90.080 Y40.369 E3.55312
G1 X93.142 Y41.059 E3.69870
G1 X96.429 Y41.960 E3.85686
G1 X99.800 Y43.040 E4.02106
G1 X103.312 Y44.316 E4.19439
G1 X106.756 Y45.708 E4.36676
G1 X110.312 Y47.281 E4.54713
G1 X113.914 Y49.010 E4.73249
G1 X117.531 Y50.880 E4.92139
G1 X121.155 Y52.884 E5.11349
G1 X124.774 Y55.016 E5.30839
G1 X128.369 Y57.264 E5.50509
G1 X131.978 Y59.656 E5.70594
G1 X135.421 Y62.068 E5.90099
G1 X138.848 Y64.602 E6.09871
G1 X142.188 Y67.209 E6.29529
G1 X145.432 Y69.883 E6.49028
G1 X148.554 Y72.602 E6.68240
G1 X151.547 Y75.361 E6.87125
G1 X154.402 Y78.152 E7.05645
G1 X157.117 Y80.978 E7.23823
G1 X159.632 Y83.773 E7.41270
G1 X161.989 Y86.587 E7.58299
G1 X164.153 Y89.383 E7.74701
G1 X166.134 Y92.176 E7.90586
G1 X167.889 Y94.916 E8.05684
G1 X169.439 Y97.638 E8.20216
G1 X170.764 Y100.324 E8.34110
G1 X171.795 Y102.823 E8.46650
G1 X172.704 Y105.620 E8.60297
G1 X173.288 Y108.253 E8.72805
G1 X173.572 Y110.842 E8.84892
G1 X173.539 Y113.245 E8.96040
G1 X173.117 Y115.908 E9.08546
G1 X172.415 Y118.028 E9.18910
G1 X172.018 Y118.907 E9.23385
G1 X170.791 Y120.957 E9.34465
G1 X169.146 Y122.846 E9.46088
G1 X133.520 Y155.831 E11.71327
G1 X131.580 Y157.382 E11.82850
G1 X129.094 Y158.746 E11.96005
G1 X126.952 Y159.554 E12.06630
G1 X124.441 Y160.168 E12.18619
G1 X121.786 Y160.520 E12.31045
G1 X119.068 Y160.628 E12.43667
G1 X116.134 Y160.511 E12.57285
G1 X113.154 Y160.186 E12.71195
G1 X110.055 Y159.659 E12.85779
G1 X106.829 Y158.934 E13.01116
G1 X103.576 Y158.041 E13.16765
G1 X100.200 Y156.960 E13.33212
G1 X96.755 Y155.710 E13.50212
G1 X93.166 Y154.259 E13.68172
G1 X89.605 Y152.680 E13.86248
G1 X86.086 Y150.990 E14.04355
G1 X82.543 Y149.159 E14.22856
G1 X78.845 Y147.116 E14.42456
G1 X75.215 Y144.978 E14.62001
G1 X71.631 Y142.736 E14.81615
G1 X68.016 Y140.339 E15.01739
G1 X64.518 Y137.888 E15.21551
G1 X61.152 Y135.398 E15.40978
G1 X57.873 Y132.839 E15.60274
G1 X54.573 Y130.121 E15.80107
G1 X51.446 Y127.398 E15.99346
G1 X48.453 Y124.639 E16.18231
G1 X45.582 Y121.831 E16.36863
G1 X42.833 Y118.968 E16.55274
G1 X40.368 Y116.227 E16.72376
G1 X38.083 Y113.501 E16.88877
G1 X35.850 Y110.622 E17.05780
G1 X33.941 Y107.933 E17.21080
G1 X32.114 Y105.089 E17.36762
G1 X30.564 Y102.367 E17.51293
G1 X29.236 Y99.676 E17.65214
G1 X28.205 Y97.177 E17.77756
G1 X27.294 Y94.374 E17.91431
G1 X26.705 Y91.700 E18.04133
G1 X26.425 Y89.092 E18.16301
G1 X26.493 Y86.385 E18.28865
G1 X26.920 Y83.941 E18.40374
G1 X27.770 Y81.516 E18.52295
G1 X29.030 Y79.291 E18.64157
G1 X30.530 Y77.483 E18.75059
G1 X66.444 Y44.202 E21.02214
G1 X68.065 Y42.874 E21.11933
G1 X68.347 Y43.219 F15000.000
G1 F3000
G1 X70.761 Y41.805 E21.24911
G1 X73.360 Y40.821 E21.37804
G1 X75.936 Y40.224 E21.50070
G1 X78.285 Y39.922 E21.61058
G1 X80.989 Y39.818 E21.73611
G1 X83.828 Y39.933 E21.86795
G1 X86.631 Y40.237 E21.99874
G1 X89.983 Y40.805 E22.15646
G1 X93.033 Y41.491 E22.30149
G1 X96.301 Y42.388 E22.45870
G1 X99.654 Y43.461 E22.62205
G1 X103.147 Y44.731 E22.79448
G1 X106.580 Y46.118 E22.96625
G1 X110.128 Y47.688 E23.14623
G1 X113.712 Y49.408 E23.33068
G1 X117.318 Y51.272 E23.51899
G1 X120.936 Y53.273 E23.71079
G1 X124.545 Y55.399 E23.90512
G1 X128.125 Y57.638 E24.10100
G1 X131.722 Y60.022 E24.30119
G1 X135.158 Y62.428 E24.49583
G1 X138.576 Y64.955 E24.69301
G1 X141.907 Y67.556 E24.88905
G1 X145.141 Y70.221 E25.08348
G1 X148.254 Y72.933 E25.27503
G1 X151.242 Y75.687 E25.46357
G1 X154.083 Y78.465 E25.64789
G1 X156.788 Y81.279 E25.82897
G1 X159.294 Y84.065 E26.00279
G1 X161.640 Y86.866 E26.17232
G1 X163.798 Y89.652 E26.33581
G1 X165.763 Y92.425 E26.49346
G1 X167.507 Y95.147 E26.64348
G1 X169.045 Y97.848 E26.78767
G1 X170.358 Y100.510 E26.92535
G1 X171.377 Y102.980 E27.04933
G1 X172.273 Y105.737 E27.18379
G1 X172.847 Y108.321 E27.30658
G1 X173.126 Y110.866 E27.42540
G1 X173.094 Y113.212 E27.53421
G1 X172.682 Y115.808 E27.65618
G1 X171.995 Y117.875 E27.75720
G1 X171.626 Y118.694 E27.79888
G1 X170.429 Y120.696 E27.90710
G1 X168.839 Y122.521 E28.01940
G1 X133.219 Y155.502 E30.27148
G1 X131.341 Y157.005 E30.38311
G1 X128.933 Y158.329 E30.51059
G1 X126.823 Y159.127 E30.61523
G1 X124.359 Y159.729 E30.73291
G1 X121.744 Y160.075 E30.85528
G1 X119.057 Y160.181 E30.98002
G1 X116.166 Y160.066 E31.11426
G1 X113.214 Y159.744 E31.25200
G1 X110.141 Y159.221 E31.39663
G1 X106.934 Y158.500 E31.54915
G1 X103.699 Y157.612 E31.70475
G1 X100.346 Y156.539 E31.86810
G1 X96.917 Y155.294 E32.03733
G1 X93.345 Y153.850 E32.21605
G1 X89.798 Y152.277 E32.39609
G1 X86.288 Y150.592 E32.57673
G1 X82.748 Y148.763 E32.76156
G1 X79.064 Y146.727 E32.95683
G1 X75.445 Y144.595 E33.15170
G1 X71.870 Y142.359 E33.34731
G1 X68.272 Y139.974 E33.54761
G1 X64.784 Y137.529 E33.74520
G1 X61.424 Y135.045 E33.93906
G1 X58.148 Y132.487 E34.13189
G1 X54.864 Y129.783 E34.32926
G1 X51.746 Y127.067 E34.52108
G1 X48.758 Y124.313 E34.70961
G1 X45.901 Y121.519 E34.89500
G1 X43.165 Y118.669 E35.07826
G1 X40.706 Y115.935 E35.24884
G1 X38.426 Y113.214 E35.41355
G1 X36.209 Y110.357 E35.58132
G1 X34.309 Y107.680 E35.73362
G1 X32.495 Y104.858 E35.88925
G1 X30.957 Y102.157 E36.03344
G1 X29.642 Y99.490 E36.17138
G1 X28.623 Y97.020 E36.29537
G1 X27.725 Y94.258 E36.43010
G1 X27.146 Y91.634 E36.55476
G1 X26.871 Y89.082 E36.67383
G1 X26.936 Y86.444 E36.79625
G1 X27.351 Y84.057 E36.90864
G1 X28.177 Y81.698 E37.02463
G1 X29.402 Y79.537 E37.13982
G1 X30.865 Y77.778 E37.24599
G1 X66.747 Y44.530 E39.51544
G1 X68.301 Y43.257 E39.60861
G1 E37.10861 F4800.00000
G92 E0
G1 X83.391 Y111.768 F15000.000
G1 E2.50000 F4800.00000
G1 F990
G1 X86.216 Y113.746 E2.66002
G1 X86.616 Y114.411 E2.69603
G1 X86.946 Y115.370 E2.74305
G1 X87.069 Y116.376 E2.79006
G1 X86.981 Y117.385 E2.83708
G1 X86.685 Y118.354 E2.88410
G1 X86.193 Y119.241 E2.93111
G1 X85.528 Y120.006 E2.97813
G1 X84.719 Y120.616 E3.02515
G1 X83.801 Y121.044 E3.07217
G1 X82.813 Y121.272 E3.11918
G1 X81.800 Y121.290 E3.16620
G1 X81.038 Y121.141 E3.20221
G1 X78.228 Y119.174 E3.36132
G1 X77.829 Y118.509 E3.39733
G1 X77.499 Y117.551 E3.44435
G1 X77.375 Y116.545 E3.49136
G1 X77.463 Y115.535 E3.53838
G1 X77.760 Y114.566 E3.58540
G1 X78.251 Y113.680 E3.63242
G1 X78.916 Y112.915 E3.67943
G1 X79.725 Y112.305 E3.72645
G1 X80.644 Y111.877 E3.77347
G1 X81.631 Y111.649 E3.82049
G1 X82.591 Y111.632 E3.86502
G1 X83.331 Y111.758 E3.89986
G1 X83.217 Y112.191 F15000.000
G1 F990
G1 X85.882 Y114.057 E4.05081
G1 X86.209 Y114.601 E4.08025
G1 X86.508 Y115.471 E4.12291
G1 X86.621 Y116.383 E4.16558
G1 X86.540 Y117.300 E4.20824
G1 X86.272 Y118.179 E4.25091
G1 X85.826 Y118.983 E4.29357
G1 X85.222 Y119.677 E4.33623
G1 X84.488 Y120.231 E4.37890
G1 X83.654 Y120.620 E4.42156
G1 X82.758 Y120.826 E4.46423
G1 X81.839 Y120.842 E4.50689
G1 X81.216 Y120.721 E4.53633
G1 X78.562 Y118.863 E4.68663
G1 X78.235 Y118.319 E4.71606
G1 X77.936 Y117.450 E4.75873
G1 X77.824 Y116.537 E4.80139
G1 X77.904 Y115.621 E4.84406
G1 X78.173 Y114.741 E4.88672
G1 X78.619 Y113.937 E4.92939
G1 X79.222 Y113.243 E4.97205
G1 X79.957 Y112.690 E5.01471
G1 X80.790 Y112.301 E5.05738
G1 X81.686 Y112.094 E5.10004
G1 X82.557 Y112.079 E5.14047
G1 X83.158 Y112.181 E5.16872
G1 X83.043 Y112.614 F15000.000
G1 F990
G1 X85.549 Y114.368 E5.31062
G1 X85.802 Y114.791 E5.33347
G1 X86.071 Y115.572 E5.37179
G1 X86.172 Y116.391 E5.41010
G1 X86.100 Y117.214 E5.44841
G1 X85.858 Y118.004 E5.48672
G1 X85.458 Y118.726 E5.52503
G1 X84.916 Y119.349 E5.56334
G1 X84.257 Y119.846 E5.60166
G1 X83.508 Y120.195 E5.63997
G1 X82.704 Y120.381 E5.67828
G1 X81.878 Y120.395 E5.71659
G1 X81.394 Y120.301 E5.73945
G1 X78.896 Y118.552 E5.88095
G1 X78.642 Y118.130 E5.90380
G1 X78.373 Y117.349 E5.94211
G1 X78.273 Y116.529 E5.98042
G1 X78.345 Y115.706 E6.01874
G1 X78.586 Y114.917 E6.05705
G1 X78.986 Y114.194 E6.09536
G1 X79.528 Y113.571 E6.13367
G1 X80.188 Y113.074 E6.17198
G1 X80.936 Y112.725 E6.21029
G1 X81.741 Y112.539 E6.24861
G1 X82.524 Y112.526 E6.28493
G1 X82.984 Y112.604 E6.30659
G1 X82.869 Y113.037 F15000.000
G1 F990
G1 X85.215 Y114.680 E6.43943
G1 X85.396 Y114.980 E6.45571
G1 X85.634 Y115.673 E6.48967
G1 X85.723 Y116.399 E6.52362
G1 X85.659 Y117.128 E6.55758
G1 X85.445 Y117.828 E6.59154
G1 X85.090 Y118.468 E6.62550
G1 X84.610 Y119.021 E6.65946
G1 X84.026 Y119.461 E6.69342
G1 X83.362 Y119.771 E6.72738
G1 X82.649 Y119.935 E6.76134
G1 X81.917 Y119.948 E6.79530
G1 X81.573 Y119.881 E6.81157
G1 X79.230 Y118.241 E6.94427
G1 X79.049 Y117.940 E6.96055
G1 X78.811 Y117.248 E6.99451
G1 X78.721 Y116.521 E7.02847
G1 X78.785 Y115.792 E7.06242
G1 X78.999 Y115.092 E7.09638
G1 X79.354 Y114.452 E7.13034
G1 X79.834 Y113.899 E7.16430
G1 X80.419 Y113.459 E7.19826
G1 X81.082 Y113.150 E7.23222
G1 X81.796 Y112.985 E7.26618
G1 X82.490 Y112.973 E7.29839
G1 X82.810 Y113.027 E7.31347
G1 X83.194 Y112.804 F15000.000
G1 E4.81347 F4800.00000
G92 E0
G1 X92.650 Y99.069 F15000.000
G1 E2.50000 F4800.00000
G1 F3000
G1 X95.494 Y101.060 E2.66106
G1 X98.765 Y103.479 E2.84980
G1 X101.951 Y105.966 E3.03731
G1 X105.036 Y108.509 E3.22278
G1 X108.005 Y111.094 E3.40542
G1 X110.842 Y113.710 E3.58445
G1 X113.534 Y116.342 E3.75911
G1 X116.067 Y118.977 E3.92867
G1 X118.428 Y121.601 E4.09245
G1 X120.606 Y124.201 E4.24978
G1 X122.589 Y126.762 E4.40005
G1 X124.368 Y129.270 E4.54272
G1 X125.933 Y131.712 E4.67727
G1 X127.277 Y134.073 E4.80329
G1 X128.394 Y136.337 E4.92044
G1 X129.280 Y138.491 E5.02847
G1 X129.931 Y140.518 E5.12727
G1 X130.350 Y142.404 E5.21689
G1 X130.541 Y144.134 E5.29764
G1 X130.513 Y145.697 E5.37016
G1 X130.279 Y147.089 E5.43560
G1 X129.854 Y148.313 E5.49573
G1 X129.245 Y149.386 E5.55298
G1 X128.445 Y150.326 E5.61023
G1 X127.440 Y151.144 E5.67035
G1 X126.212 Y151.839 E5.73579
G1 X124.753 Y152.400 E5.80831
G1 X123.062 Y152.812 E5.88906
G1 X121.147 Y153.064 E5.97869
G1 X119.019 Y153.145 E6.07748
G1 X116.694 Y153.050 E6.18545
G1 X114.114 Y152.763 E6.30587
G1 X111.504 Y152.319 E6.42867
G1 X108.674 Y151.683 E6.56323
G1 X105.709 Y150.870 E6.70590
G1 X102.624 Y149.882 E6.85617
G1 X99.436 Y148.725 E7.01350
G1 X96.163 Y147.403 E7.17728
G1 X92.820 Y145.924 E7.34684
G1 X89.426 Y144.295 E7.52150
G1 X85.998 Y142.523 E7.70053
G1 X82.553 Y140.618 E7.88317
G1 X79.108 Y138.589 E8.06864
G1 X75.682 Y136.445 E8.25615
G1 X72.290 Y134.199 E8.44488
G1 X68.950 Y131.861 E8.63402
G1 X65.679 Y129.442 E8.82276
G1 X62.493 Y126.955 E9.01027
G1 X59.408 Y124.412 E9.19574
G1 X56.440 Y121.826 E9.37838
G1 X53.602 Y119.211 E9.55741
G1 X50.910 Y116.579 E9.73207
G1 X48.377 Y113.944 E9.90163
G1 X46.016 Y111.319 E10.06541
G1 X43.838 Y108.720 E10.22274
G1 X41.905 Y106.224 E10.36920
G1 X40.076 Y103.649 E10.51571
G1 X38.511 Y101.208 E10.65023
G1 X37.167 Y98.848 E10.77625
G1 X36.050 Y96.583 E10.89340
G1 X35.165 Y94.429 E11.00143
G1 X34.513 Y92.402 E11.10023
G1 X34.094 Y90.516 E11.18985
G1 X33.904 Y88.786 E11.27060
G1 X33.932 Y87.223 E11.34312
G1 X34.165 Y85.832 E11.40856
G1 X34.590 Y84.608 E11.46869
G1 X35.200 Y83.535 E11.52593
G1 X35.999 Y82.595 E11.58319
G1 X37.005 Y81.777 E11.64331
G1 X38.232 Y81.082 E11.70875
G1 X39.691 Y80.521 E11.78127
G1 X41.382 Y80.108 E11.86202
G1 X43.296 Y79.857 E11.95157
G1 X45.485 Y79.778 E12.05321
G1 X47.752 Y79.871 E12.15846
G1 X50.262 Y80.146 E12.27561
G1 X52.940 Y80.602 E12.40163
G1 X55.770 Y81.237 E12.53619
G1 X58.736 Y82.051 E12.67885
G1 X61.821 Y83.038 E12.82912
G1 X65.008 Y84.196 E12.98645
G1 X68.282 Y85.517 E13.15023
G1 X71.624 Y86.996 E13.31979
G1 X75.018 Y88.626 E13.49446
G1 X78.446 Y90.397 E13.67348
G1 X81.891 Y92.302 E13.85612
G1 X85.336 Y94.332 E14.04160
G1 X88.763 Y96.475 E14.22910
G1 X92.601 Y99.034 E14.44313
G1 X92.906 Y98.703 F15000.000
G1 F3000
G1 X95.755 Y100.698 E14.60446
G1 X99.035 Y103.123 E14.79373
G1 X102.231 Y105.618 E14.98179
G1 X105.325 Y108.168 E15.16781
G1 X108.303 Y110.762 E15.35103
G1 X111.150 Y113.386 E15.53065
G1 X113.851 Y116.027 E15.70594
G1 X116.394 Y118.673 E15.87616
G1 X118.766 Y121.308 E16.04065
G1 X120.954 Y123.920 E16.19874
G1 X122.948 Y126.496 E16.34985
G1 X124.738 Y129.021 E16.49343
G1 X126.315 Y131.481 E16.62902
G1 X127.672 Y133.863 E16.75620
G1 X128.801 Y136.153 E16.87466
G1 X129.699 Y138.338 E16.98422
G1 X130.363 Y140.401 E17.08479
G1 X130.791 Y142.331 E17.17650
G1 X130.987 Y144.114 E17.25970
G1 X130.958 Y145.738 E17.33508
G1 X130.713 Y147.199 E17.40381
G1 X130.263 Y148.498 E17.46757
G1 X129.612 Y149.643 E17.52867
G1 X128.759 Y150.646 E17.58977
G1 X127.693 Y151.514 E17.65354
G1 X126.404 Y152.243 E17.72225
G1 X124.887 Y152.826 E17.79764
G1 X123.145 Y153.252 E17.88084
G1 X121.185 Y153.509 E17.97255
G1 X119.018 Y153.592 E18.07312
G1 X116.660 Y153.495 E18.18263
G1 X114.052 Y153.205 E18.30437
G1 X111.418 Y152.757 E18.42831
G1 X108.566 Y152.116 E18.56390
G1 X105.582 Y151.298 E18.70749
G1 X102.480 Y150.304 E18.85859
G1 X99.276 Y149.142 E19.01668
G1 X95.989 Y147.814 E19.18117
G1 X92.633 Y146.330 E19.35140
G1 X89.227 Y144.694 E19.52668
G1 X85.788 Y142.917 E19.70631
G1 X82.332 Y141.006 E19.88952
G1 X78.877 Y138.970 E20.07555
G1 X75.440 Y136.821 E20.26360
G1 X72.039 Y134.568 E20.45288
G1 X68.690 Y132.223 E20.64255
G1 X65.409 Y129.797 E20.83183
G1 X62.214 Y127.303 E21.01988
G1 X59.120 Y124.752 E21.20591
G1 X56.142 Y122.159 E21.38912
G1 X53.295 Y119.534 E21.56875
G1 X50.593 Y116.893 E21.74403
G1 X48.050 Y114.248 E21.91426
G1 X45.679 Y111.612 E22.07874
G1 X43.491 Y109.000 E22.23684
G1 X41.547 Y106.490 E22.38412
G1 X39.706 Y103.899 E22.53155
G1 X38.129 Y101.439 E22.66711
G1 X36.773 Y99.057 E22.79429
G1 X35.643 Y96.767 E22.91276
G1 X34.745 Y94.583 E23.02231
G1 X34.082 Y92.519 E23.12289
G1 X33.653 Y90.589 E23.21459
G1 X33.457 Y88.807 E23.29779
G1 X33.486 Y87.182 E23.37318
G1 X33.731 Y85.721 E23.44190
G1 X34.182 Y84.423 E23.50566
G1 X34.832 Y83.278 E23.56676
G1 X35.686 Y82.274 E23.62786
G1 X36.752 Y81.407 E23.69163
G1 X38.041 Y80.677 E23.76035
G1 X39.558 Y80.094 E23.83573
G1 X41.300 Y79.669 E23.91893
G1 X43.259 Y79.412 E24.01058
G1 X45.486 Y79.331 E24.11400
G1 X47.786 Y79.425 E24.22076
G1 X50.324 Y79.704 E24.33922
G1 X53.026 Y80.164 E24.46640
G1 X55.878 Y80.804 E24.60199
G1 X58.863 Y81.623 E24.74557
G1 X61.965 Y82.616 E24.89668
G1 X65.168 Y83.779 E25.05477
G1 X68.456 Y85.106 E25.21926
G1 X71.811 Y86.591 E25.38949
G1 X75.217 Y88.226 E25.56477
G1 X78.657 Y90.004 E25.74440
G1 X82.113 Y91.915 E25.92761
G1 X85.568 Y93.950 E26.11364
G1 X89.004 Y96.100 E26.30169
G1 X92.406 Y98.353 E26.49097
G1 X92.857 Y98.669 E26.51653
G1 X93.162 Y98.337 F15000.000
G1 F3000
G1 X96.016 Y100.335 E26.67813
G1 X99.305 Y102.768 E26.86794
G1 X102.510 Y105.269 E27.05654
G1 X105.613 Y107.827 E27.24312
G1 X108.601 Y110.429 E27.42691
G1 X111.457 Y113.062 E27.60713
G1 X114.168 Y115.713 E27.78304
G1 X116.721 Y118.369 E27.95393
G1 X119.103 Y121.016 E28.11912
G1 X121.302 Y123.640 E28.27798
G1 X123.307 Y126.230 E28.42992
G1 X125.108 Y128.771 E28.57442
G1 X126.698 Y131.250 E28.71104
G1 X128.066 Y133.654 E28.83937
G1 X129.208 Y135.970 E28.95916
G1 X130.119 Y138.184 E29.07024
G1 X130.794 Y140.285 E29.17259
G1 X131.232 Y142.258 E29.26639
G1 X131.434 Y144.093 E29.35204
G1 X131.404 Y145.780 E29.43028
G1 X131.147 Y147.310 E29.50228
G1 X130.671 Y148.683 E29.56969
G1 X129.979 Y149.900 E29.63464
G1 X129.072 Y150.966 E29.69959
G1 X127.945 Y151.884 E29.76700
G1 X126.595 Y152.648 E29.83899
G1 X125.020 Y153.253 E29.91724
G1 X123.227 Y153.691 E30.00289
